src/img/map-icon.svg

<svg width="18" height="22" viewBox="0 0 18 22" fill="none" xmlns="http://www.w3.org/2000/svg">
<path d="M8.99582 1C4.58807 1 1 4.59749 1 9.01676C1 9.51992 1.046 10.0273 1.14219 10.522C1.14637 10.5514 1.1631 10.6394 1.19655 10.7904C1.31783 11.3312 1.49765 11.8637 1.73184 12.3711C2.5933 14.4046 4.48771 17.5283 8.64454 20.8742C8.74908 20.9581 8.87456 21 9 21C9.12545 21 9.25093 20.9581 9.35547 20.8742C13.5081 17.5283 15.4067 14.4046 16.2682 12.3711C16.5023 11.8637 16.6822 11.3354 16.8034 10.7904C16.8369 10.6394 16.8537 10.5514 16.8578 10.522C16.9498 10.0273 17 9.51992 17 9.01676C16.9917 4.59749 13.4036 1 8.99582 1ZM15.7371 10.325C15.7371 10.3333 15.7329 10.3417 15.7329 10.3501C15.7287 10.3711 15.7162 10.434 15.6952 10.5304C15.6952 10.5346 15.6952 10.5346 15.6952 10.5388C15.5907 11.0084 15.436 11.4654 15.2311 11.9057C15.2269 11.9099 15.2269 11.9182 15.2227 11.9224C14.4407 13.7799 12.7261 16.6143 8.99582 19.7044C5.26556 16.6143 3.55096 13.7799 2.76895 11.9224C2.76476 11.9182 2.76476 11.9099 2.76058 11.9057C2.55986 11.4696 2.40512 11.0084 2.29639 10.5388C2.29639 10.5346 2.29639 10.5346 2.29639 10.5304C2.2713 10.434 2.26295 10.3711 2.25877 10.3501C2.25877 10.3417 2.25458 10.3333 2.25458 10.3208C2.17094 9.8889 2.12911 9.45282 2.12911 9.01259C2.12911 5.21803 5.2112 2.12788 8.99582 2.12788C12.7805 2.12788 15.8625 5.21803 15.8625 9.01259C15.8625 9.45701 15.8207 9.89727 15.7371 10.325Z" fill="#9A8584" stroke="#9A8584" stroke-width="0.3"/>
<path d="M9 4C6.24466 4 4 6.24465 4 9.00001C4 11.7553 6.24466 14 9 14C11.7554 14 14 11.7553 14 9.00001C14 6.24465 11.7554 4 9 4ZM9 12.888C6.85421 12.888 5.11204 11.1417 5.11204 9.00001C5.11204 6.85832 6.85833 5.11203 9 5.11203C11.1417 5.11203 12.888 6.85832 12.888 9.00001C12.888 11.1417 11.1458 12.888 9 12.888Z" fill="#9A8584" stroke="#9A8584" stroke-width="0.3"/>
</svg>

<svg width="18" height="22" fill="none" xmlns="http://www.w3.org/2000/svg"><path d="M8.996 1C4.588 1 1 4.597 1 9.017a7.91 7.91 0 00.197 1.773c.12.541.3 1.074.535 1.581.861 2.034 2.756 5.157 6.913 8.503a.567.567 0 00.71 0c4.153-3.346 6.052-6.47 6.913-8.503a7.824 7.824 0 00.59-1.849A8.265 8.265 0 0017 9.017C16.992 4.597 13.404 1 8.996 1zm6.741 9.325c0 .008-.004.017-.004.025l-.038.18v.009c-.104.47-.259.926-.464 1.367-.004.004-.004.012-.008.016-.782 1.858-2.497 4.692-6.227 7.782-3.73-3.09-5.445-5.924-6.227-7.782-.004-.004-.004-.012-.008-.016a7.115 7.115 0 01-.465-1.367v-.009c-.025-.096-.033-.159-.037-.18 0-.008-.004-.017-.004-.03a6.865 6.865 0 01-.126-1.307c0-3.795 3.082-6.885 6.867-6.885 3.784 0 6.867 3.09 6.867 6.885 0 .444-.042.884-.126 1.312z" fill="#9A8584" stroke="#9A8584" stroke-width=".3"/><path d="M9 4C6.245 4 4 6.245 4 9s2.245 5 5 5 5-2.245 5-5-2.245-5-5-5zm0 8.888A3.893 3.893 0 015.112 9 3.895 3.895 0 019 5.112 3.895 3.895 0 0112.888 9 3.893 3.893 0 019 12.888z" fill="#9A8584" stroke="#9A8584" stroke-width=".3"/></svg>
